img/svg/globe-hover.svg

<?xml version="1.0" encoding="UTF-8"?>
<svg width="32px" height="32px" viewBox="0 0 32 32" version="1.1" xmlns="http://www.w3.org/2000/svg" xmlns:xlink="http://www.w3.org/1999/xlink">
    <!-- Generator: Sketch 51 (57462) - http://www.bohemiancoding.com/sketch -->
    <title>globe 1</title>
    <desc>Created with Sketch.</desc>
    <defs></defs>
    <g id="Page-1" stroke="none" stroke-width="1" fill="none" fill-rule="evenodd">
        <g id="globe-1" fill="#0067C5" fill-rule="nonzero">
            <path d="M28.1866667,5.64933333 C27.56,7.424 26.2853333,10.2693333 24.2986667,11.2626667 C24.156,11.3346667 23.992,11.3506667 23.8386667,11.3133333 C22.4293333,10.96 21.0026667,11.4813333 20.2733333,11.8973333 C20.58,12.312 20.9226667,13.0266667 21.2506667,14.2626667 C21.5346667,14.3626667 22.088,14.212 22.3666667,14.0693333 C22.624,13.94 22.9333333,13.9893333 23.1373333,14.1946667 C24.7546667,15.812 22.6586667,17.992 21.4053333,19.2933333 C21.184,19.524 20.9013333,19.8173333 20.744,20.008 C20.7973333,20.0586667 20.86,20.1133333 20.9093333,20.156 C21.2133333,20.4213333 21.6306667,20.784 21.652,21.3586667 C21.6653333,21.7413333 21.492,22.1146667 21.1373333,22.4693333 C20.4453333,23.1613333 19.748,23.5666667 19.3146667,23.7773333 C19.124,26.048 17.4533333,27.3333333 14.6666667,27.3333333 C13.3653333,27.3333333 12,24.0093333 12,23.3333333 C12,22.8426667 12.2133333,22.4133333 12.404,22.0346667 C12.532,21.7773333 12.6666667,21.5093333 12.6666667,21.3333333 C12.636,21.1053333 12.0933333,20.3706667 11.528,19.8053333 C11.404,19.6813333 11.3333333,19.5093333 11.3333333,19.3333333 C11.3333333,18.76 11.2306667,18.3733333 11.028,18.1826667 C10.6933333,17.8666667 9.896,17.9133333 9.05733333,17.96 C8.712,17.9786667 8.356,18 8,18 C5.89066667,18 5.33333333,15.8186667 5.33333333,14.6666667 C5.33333333,14.4546667 5.37733333,9.444 9.20133333,8.68 C10.9453333,8.32933333 12.1213333,8.43333333 12.8053333,8.99466667 C13.0466667,9.192 13.192,9.42533333 13.2666667,9.63866667 C13.968,10.1586667 15.2266667,9.86533333 16.3453333,9.60533333 C16.7146667,9.52 17.0733333,9.436 17.4053333,9.38666667 C17.5293333,8.25866667 17.5333333,7.16933333 17.4173333,6.69466667 C16.6,7.03866667 15.788,7.036 15.1533333,6.68266667 C14.496,6.31733333 14.0866667,5.62266667 14.004,4.72666667 C13.8253333,2.80933333 17.5253333,1.31733333 20.0666667,0.524 C18.7653333,0.184 17.404,0 16,0 C7.17733333,0 0,7.17866667 0,16 C0,24.8213333 7.17733333,32 16,32 C24.8213333,32 32,24.8213333 32,16 C32,12.0546667 30.5613333,8.44133333 28.1866667,5.64933333 Z" id="Shape"></path>
        </g>
    </g>
</svg>

<svg width="32" height="32" xmlns="http://www.w3.org/2000/svg"><path d="M28.187 5.65c-.627 1.774-1.902 4.62-3.888 5.613a.67.67 0 0 1-.46.05c-1.41-.353-2.836.168-3.566.584.307.415.65 1.13.978 2.366.284.1.837-.051 1.116-.194a.663.663 0 0 1 .77.126c1.618 1.617-.478 3.797-1.732 5.098-.221.231-.504.524-.661.715.053.05.116.105.165.148.304.265.722.628.743 1.203.013.382-.16.756-.515 1.11a6.843 6.843 0 0 1-1.822 1.308c-.191 2.271-1.862 3.556-4.648 3.556-1.302 0-2.667-3.324-2.667-4 0-.49.213-.92.404-1.298.128-.258.263-.526.263-.702-.031-.228-.574-.962-1.139-1.528a.671.671 0 0 1-.195-.472c0-.573-.102-.96-.305-1.15-.335-.316-1.132-.27-1.97-.223-.346.019-.702.04-1.058.04-2.11 0-2.667-2.181-2.667-3.333 0-.212.044-5.223 3.868-5.987 1.744-.35 2.92-.247 3.604.315.242.197.387.43.462.644.701.52 1.96.226 3.078-.034.37-.085.728-.169 1.06-.218.124-1.128.128-2.218.012-2.692-.817.344-1.629.341-2.264-.012-.657-.366-1.066-1.06-1.149-1.956-.179-1.918 3.521-3.41 6.063-4.203A16.06 16.06 0 0 0 16 0C7.177 0 0 7.179 0 16s7.177 16 16 16c8.821 0 16-7.179 16-16 0-3.945-1.439-7.559-3.813-10.35z" fill="#0067C5" fill-rule="nonzero"/></svg>
